Papirus-Light/24x24/panel/deluge-panel.svg

<svg xmlns="http://www.w3.org/2000/svg" width="24" height="24" version="1.1">
 <defs>
  <style id="current-color-scheme" type="text/css">
   .ColorScheme-Text { color:#444444; } .ColorScheme-Highlight { color:#4285f4; }
  </style>
 </defs>
 <path style="fill:currentColor;fill-rule:evenodd" class="ColorScheme-Text" d="m 12.015873,4 c -0.141624,4.577e-4 -0.289389,0.1324411 -0.498047,0.4003906 L 7.1799352,10.720703 C 5.6875271,12.894277 5.7035702,15.242171 6.7092321,17.015625 7.7148939,18.789079 9.6947355,20 12.002201,20 c 2.30739,0 4.284324,-1.210911 5.289063,-2.984375 1.004738,-1.773463 1.020179,-4.122098 -0.470704,-6.296875 L 12.480717,4.3886719 C 12.293338,4.1312144 12.157497,3.9995423 12.015873,4 Z m -0.01172,1.7128906 3.66211,5.6113284 c 0.890977,1.382225 1.062861,2.690036 -0.419922,3.867187 -0.176838,0.15048 -0.39997,0.292894 -0.644532,0.421875 -0.556509,0.246563 -1.143187,0.506294 -1.798828,0.582031 -0.265302,0.04544 -0.546505,0.07394 -0.857422,0.06055 -0.03373,-0.0037 -0.06763,-0.0056 -0.101562,-0.0059 h -0.0059 c -0.992918,-1e-6 -1.812501,-0.826388 -1.812501,-1.916016 6e-4,-0.967567 0.665297,-1.750541 1.53711,-1.892578 0.166174,-0.03285 0.339713,-0.06425 0.521484,-0.103515 0.733122,-0.241158 1.049996,-1.269897 0.355469,-1.763672 -0.49311,-0.350134 -1.067913,-0.543465 -1.644531,-0.570313 -0.708146,-0.03296 -1.4032488,0.192803 -2.0000004,0.613281 z"/>
</svg>

<svg xmlns="http://www.w3.org/2000/svg" width="24" height="24" version="1.1">
 <defs>
  <style id="current-color-scheme" type="text/css">
   .ColorScheme-Text { color:#444444; } .ColorScheme-Highlight { color:#4285f4; }
  </style>
 </defs>
 <path style="fill:currentColor" class="ColorScheme-Text" d="M 12.016,4 C 11.874,4.0005 11.726,4.1324 11.518,4.4004 L 7.1799,10.721 C 5.6876,12.894 5.7036,15.242 6.7093,17.016 7.7148,18.789 9.6947,20 12.002,20 14.309,20 16.286,18.789 17.291,17.016 18.296,15.242 18.311,12.894 16.82,10.719 L 12.48,4.3887 C 12.293,4.1312 12.157,3.9995 12.016,4 Z M 12.004,5.7129 15.666,11.324 C 16.557,12.706 16.729,14.014 15.246,15.191 15.069,15.342 14.846,15.484 14.602,15.613 14.045,15.86 13.458,16.12 12.803,16.195 12.537,16.241 12.256,16.269 11.945,16.256 11.912,16.252 11.878,16.25 11.844,16.25 H 11.838 C 10.845,16.25 10.025,15.424 10.025,14.334 10.026,13.366 10.691,12.583 11.562,12.441 11.729,12.409 11.902,12.377 12.084,12.338 12.817,12.097 13.134,11.068 12.439,10.574 11.946,10.224 11.371,10.031 10.795,10.004 10.087,9.971 9.3918,10.197 8.7951,10.617 Z"/>
</svg>
